X:37
T:Michael Turner's Waltz
D:Oyster Band - Lie Back and Think of England; recorded by Eliza Carthy
Z:SG
M:3/4
L:1/8
K:G
|:DGA|"G"B2BDcD|"Bm"d2d2gf|"C"e2efge|"D"d2d2GA|
"G"B2BDcD|"Bm"d2d2cA|"C"G2GB"D"AF|"G"G3:|
|:zAB|"C"c2cdcB|"Am"A4Bc|"G"d2decd|"Em"B3dgf|
"C"edefge|"Bm"dc BAGA|"Em"B2Bc"D"AF|"G"G3:|
